X: 22429
T: Lads And Lasses
R: three-two
M: 3/2
K: Gmajor
|:G2 G/A/ B A G/A/ Bd dg e2|d e/d/ c d/c/ B>c BD G/A/ B AG|G2 G/A/ B A G/A/ Bd dg e2|d e/d/ c d/c/ B>c BD G/A/ B AG|
A2 F/G/ A d A/G/ FA Ad B2|g a/g/ fe _e=e Bb ag fe|g2 B/c/ d B/c/ d e2 E/F/ G F E/D/|G F/G/ A G/A/ B d/c/ Be A/B/ c BA:|G4||

